src/theme/images/Flags/Arabe.svg

<svg fill="none" height="16" viewBox="0 0 20 16" width="20" xmlns="http://www.w3.org/2000/svg" xmlns:xlink="http://www.w3.org/1999/xlink"><clipPath id="a"><path d="m0 2.5c0-1.10457.895431-2 2-2h16c1.1046 0 2 .89543 2 2v11c0 1.1046-.8954 2-2 2h-16c-1.104569 0-2-.8954-2-2z"/></clipPath><g clip-path="url(#a)"><path clip-rule="evenodd" d="m0 2.375c0-1.03553.839466-1.875 1.875-1.875h16.25c1.0355 0 1.875.83947 1.875 1.875v11.25c0 1.0355-.8395 1.875-1.875 1.875h-16.25c-1.035531 0-1.875-.8395-1.875-1.875z" fill="#199d00" fill-rule="evenodd"/><path d="m5.27459 5.60417-.31772.53724-.41016-.23107-.23107.45637-.53724-.29462.30039-.50835.42749.21374.25129-.44193zm.66722 4.04953h-.37838c-.06932 0-.13287-.01444-.19064-.04333-.11168-.05584-.20603-.15789-.28306-.30616-.10398-.20412-.17138-.48333-.20219-.83764-.13094.16175-.23299.27632-.30617.34372-.1059.09821-.19448.14731-.26573.14731-.03658 0-.0828-.00578-.13864-.01733l-.35239-.06932c-.15019-.03081-.24262-.05296-.27728-.06644s-.05199-.03755-.05199-.07221c0-.05199.06643-.21566.1993-.49102.13479-.27729.23203-.44867.29172-.51414.04814-.05199.13383-.11938.25707-.20219.07317-.05006.17716-.11457.31195-.19352l.15308-.08954c-.00577-.02696-.01059-.05391-.01444-.08087-.00192-.02889-.00289-.05584-.00289-.08088 0-.07317.01637-.16464.04911-.2744.03466-.11168.09531-.24936.18196-.41304l.27729 1.80236c.04429.28306.10206.47466.1733.57479.04622.06547.10976.09821.19064.09821h.37838zm-1.12359-1.63194-.05777-.34661c-.06161.02889-.10975.05199-.14442.06932-.1059.05585-.19063.10784-.25417.15598-.04622.03851-.08473.07413-.11554.10687-.03851.04236-.05777.07413-.05777.09531 0 .02696.0337.04814.1011.06355.06739.0154.13383.02311.1993.02311.04236 0 .08665-.01156.13286-.03467.04622-.02503.11169-.06932.19641-.13286zm2.72953 1.63194h-1.80813v-.78564h1.51929c-.02118-.13094-.05969-.24166-.11553-.33217-.02889-.05006-.09628-.13671-.20219-.25995l.23107-.68744c.14442.16368.24263.33505.29462.51413.05392.17908.08087.44482.08087.7972zm-.04621.5084-.31772.5892-.41016-.2311-.23107.4564-.53724-.2946.30039-.5604.42749.2138.24262-.46796zm1.65216-.5084h-1.80813v-.78564h1.51929c-.02118-.13094-.05969-.24166-.11553-.33217-.02889-.05006-.09628-.13671-.20219-.25995l.23107-.68744c.14442.16368.24262.33505.29462.51413.05391.17908.08087.44482.08087.7972zm-.29462.6095-.3466.647-.67011-.364.34661-.65854zm2.85372-.54307c0 .11747-.0674.27344-.2022.46797-.1348.1925-.2927.36-.4737.5025-.2002.1579-.3716.2369-.5141.2369-.1695 0-.3514-.0482-.54591-.1444-.16945-.0828-.43422-.2484-.79431-.4968l.12132-.1791c.1733.1155.31291.1935.41881.2339.10591.0405.22048.0607.34369.0607.1329 0 .2658-.0376.3986-.1127.1329-.0751.3139-.2147.543-.41877.3197-.28499.4795-.50451.4795-.65855 0-.07703-.0308-.17812-.0924-.30328-.0693-.1425-.1541-.26092-.2542-.35528l.1618-.77986c.1309.13479.232.2898.3032.46503.0713.17523.1069.37453.1069.5979zm2.1317-.06643h-.4275c-.1522 0-.286-.03081-.4015-.09243-.1156-.06162-.2089-.16079-.2802-.2975-.1252.15405-.2879.26284-.4881.32639-.1329.04236-.2773.06354-.4333.06354h-.3033v-.78564h.3033c.1598 0 .2715-.0077.3351-.02311.0654-.01733.1531-.05488.2628-.11265-.0578-.11361-.1078-.19544-.1502-.24551-.052-.05969-.1059-.08954-.1617-.08954-.0212 0-.0414.0077-.0607.02311-.0173.01348-.0375.04043-.0606.08087l-.1271-.01733c0-.34853.0597-.59693.179-.7452.1214-.1502.312-.2253.5719-.2253.2677 0 .4776.05296.6297.15886.1541.10399.2311.24744.2311.43037 0 .09821-.0202.19256-.0607.28307-.0404.08857-.1165.20989-.2282.36393.027.03659.0636.06547.1098.08666.0462.02118.0905.03177.1329.03177h.4275zm1.3864 0h-1.5886v-.78564h1.242l-.3495-1.96122-.1849-.12131c0-.11361.0174-.22819.052-.34372.0443-.14635.1194-.32061.2253-.5228l.1329.06932c0 .01155-.0039.04236-.0116.09243 0 .06354.0405.12516.1213.18486.0713.05391.1849.11361.3409.17908-.0174.12323-.0434.24358-.078.36104-.0328.11747-.0703.22241-.1127.31484l-.104-.04044.3149 1.78792zm1.0687-.84052c0 .17138-.0202.32831-.0607.47081-.0404.14056-.1184.33024-.2339.56901l-.1733-.06932c.0462-.24648.0693-.44674.0693-.60079 0-.11746-.0096-.2898-.0289-.51702s-.0433-.45155-.0722-.673c-.0289-.22336-.0761-.4891-.1415-.79719-.0231-.10784-.0347-.18197-.0347-.22241 0-.05969.0298-.16079.0895-.30328.0597-.14442.1435-.31869.2513-.5228l.1733 1.02249c.0636.38897.1079.72595.1329 1.01094.0193.21952.0289.43037.0289.63256z" fill="#fff"/></g></svg>

<svg width="20" height="16" viewBox="0 0 20 16" fill="none" xmlns="http://www.w3.org/2000/svg">
<g clip-path="url(#clip0)">
<path fill-rule="evenodd" clip-rule="evenodd" d="M0 2.375C0 1.33947 0.839466 0.5 1.875 0.5H18.125C19.1605 0.5 20 1.33947 20 2.375V13.625C20 14.6605 19.1605 15.5 18.125 15.5H1.875C0.839469 15.5 0 14.6605 0 13.625V2.375Z" fill="#199D00"/>
<path d="M5.27459 5.60417L4.95687 6.14141L4.54671 5.91034L4.31564 6.36671L3.7784 6.07209L4.07879 5.56374L4.50628 5.77748L4.75757 5.33555L5.27459 5.60417ZM5.94181 9.6537H5.56343C5.49411 9.6537 5.43056 9.63926 5.37279 9.61037C5.26111 9.55453 5.16676 9.45248 5.08973 9.30421C4.98575 9.10009 4.91835 8.82088 4.88754 8.46657C4.7566 8.62832 4.65455 8.74289 4.58137 8.81029C4.47547 8.9085 4.38689 8.9576 4.31564 8.9576C4.27906 8.9576 4.23284 8.95182 4.177 8.94027L3.82461 8.87095C3.67442 8.84014 3.58199 8.81799 3.54733 8.80451C3.51267 8.79103 3.49534 8.76696 3.49534 8.7323C3.49534 8.68031 3.56177 8.51664 3.69464 8.24128C3.82943 7.96399 3.92667 7.79261 3.98636 7.72714C4.0345 7.67515 4.12019 7.60776 4.24343 7.52495C4.3166 7.47489 4.42059 7.41038 4.55538 7.33143L4.70846 7.24189C4.70269 7.21493 4.69787 7.18798 4.69402 7.16102C4.6921 7.13213 4.69113 7.10518 4.69113 7.08014C4.69113 7.00697 4.7075 6.9155 4.74024 6.80574C4.7749 6.69406 4.83555 6.55638 4.9222 6.3927L5.19949 8.19506C5.24378 8.47812 5.30155 8.66972 5.37279 8.76985C5.41901 8.83532 5.48255 8.86806 5.56343 8.86806H5.94181V9.6537ZM4.81822 8.02176L4.76045 7.67515C4.69884 7.70404 4.6507 7.72714 4.61603 7.74447C4.51013 7.80032 4.4254 7.85231 4.36186 7.90045C4.31564 7.93896 4.27713 7.97458 4.24632 8.00732C4.20781 8.04968 4.18855 8.08145 4.18855 8.10263C4.18855 8.12959 4.22225 8.15077 4.28965 8.16618C4.35704 8.18158 4.42348 8.18929 4.48895 8.18929C4.53131 8.18929 4.5756 8.17773 4.62181 8.15462C4.66803 8.12959 4.7335 8.0853 4.81822 8.02176ZM7.54775 9.6537H5.73962V8.86806H7.25891C7.23773 8.73712 7.19922 8.6264 7.14338 8.53589C7.11449 8.48583 7.0471 8.39918 6.94119 8.27594L7.17226 7.5885C7.31668 7.75218 7.41489 7.92355 7.46688 8.10263C7.5208 8.28171 7.54775 8.54745 7.54775 8.89983V9.6537ZM7.50154 10.1621L7.18382 10.7513L6.77366 10.5202L6.54259 10.9766L6.00535 10.682L6.30574 10.1216L6.73323 10.3354L6.97585 9.86744L7.50154 10.1621ZM9.1537 9.6537H7.34557V8.86806H8.86486C8.84368 8.73712 8.80517 8.6264 8.74933 8.53589C8.72044 8.48583 8.65305 8.39918 8.54714 8.27594L8.77821 7.5885C8.92263 7.75218 9.02083 7.92355 9.07283 8.10263C9.12674 8.28171 9.1537 8.54745 9.1537 8.89983V9.6537ZM8.85908 10.2632L8.51248 10.9102L7.84237 10.5462L8.18898 9.88766L8.85908 10.2632ZM11.7128 9.72013C11.7128 9.8376 11.6454 9.99357 11.5106 10.1881C11.3758 10.3806 11.2179 10.5481 11.0369 10.6906C10.8367 10.8485 10.6653 10.9275 10.5228 10.9275C10.3533 10.9275 10.1714 10.8793 9.97689 10.7831C9.80744 10.7003 9.54267 10.5347 9.18258 10.2863L9.3039 10.1072C9.4772 10.2227 9.61681 10.3007 9.72271 10.3411C9.82862 10.3816 9.94319 10.4018 10.0664 10.4018C10.1993 10.4018 10.3322 10.3642 10.465 10.2891C10.5979 10.214 10.7789 10.0744 11.008 9.87033C11.3277 9.58534 11.4875 9.36582 11.4875 9.21178C11.4875 9.13475 11.4567 9.03366 11.3951 8.9085C11.3258 8.766 11.241 8.64758 11.1409 8.55322L11.3027 7.77336C11.4336 7.90815 11.5347 8.06316 11.6059 8.23839C11.6772 8.41362 11.7128 8.61292 11.7128 8.83629V9.72013ZM13.8445 9.6537H13.417C13.2648 9.6537 13.131 9.62289 13.0155 9.56127C12.8999 9.49965 12.8066 9.40048 12.7353 9.26377C12.6101 9.41782 12.4474 9.52661 12.2472 9.59016C12.1143 9.63252 11.9699 9.6537 11.8139 9.6537H11.5106V8.86806H11.8139C11.9737 8.86806 12.0854 8.86036 12.149 8.84495C12.2144 8.82762 12.3021 8.79007 12.4118 8.7323C12.354 8.61869 12.304 8.53686 12.2616 8.48679C12.2096 8.4271 12.1557 8.39725 12.0999 8.39725C12.0787 8.39725 12.0585 8.40495 12.0392 8.42036C12.0219 8.43384 12.0017 8.46079 11.9786 8.50123L11.8515 8.4839C11.8515 8.13537 11.9112 7.88697 12.0305 7.7387C12.1519 7.5885 12.3425 7.5134 12.6024 7.5134C12.8701 7.5134 13.08 7.56636 13.2321 7.67226C13.3862 7.77625 13.4632 7.9197 13.4632 8.10263C13.4632 8.20084 13.443 8.29519 13.4025 8.3857C13.3621 8.47427 13.286 8.59559 13.1743 8.74963C13.2013 8.78622 13.2379 8.8151 13.2841 8.83629C13.3303 8.85747 13.3746 8.86806 13.417 8.86806H13.8445V9.6537ZM15.2309 9.6537H13.6423V8.86806H14.8843L14.5348 6.90684L14.3499 6.78553C14.3499 6.67192 14.3673 6.55734 14.4019 6.44181C14.4462 6.29546 14.5213 6.1212 14.6272 5.91901L14.7601 5.98833C14.7601 5.99988 14.7562 6.03069 14.7485 6.08076C14.7485 6.1443 14.789 6.20592 14.8698 6.26562C14.9411 6.31953 15.0547 6.37923 15.2107 6.4447C15.1933 6.56793 15.1673 6.68828 15.1327 6.80574C15.0999 6.92321 15.0624 7.02815 15.02 7.12058L14.916 7.08014L15.2309 8.86806V9.6537ZM16.2996 8.81318C16.2996 8.98456 16.2794 9.14149 16.2389 9.28399C16.1985 9.42455 16.1205 9.61423 16.005 9.853L15.8317 9.78368C15.8779 9.5372 15.901 9.33694 15.901 9.18289C15.901 9.06543 15.8914 8.89309 15.8721 8.66587C15.8528 8.43865 15.8288 8.21432 15.7999 7.99287C15.771 7.76951 15.7238 7.50377 15.6584 7.19568C15.6353 7.08784 15.6237 7.01371 15.6237 6.97327C15.6237 6.91358 15.6535 6.81248 15.7132 6.66999C15.7729 6.52557 15.8567 6.3513 15.9645 6.14719L16.1378 7.16968C16.2014 7.55865 16.2457 7.89563 16.2707 8.18062C16.29 8.40014 16.2996 8.61099 16.2996 8.81318Z" fill="white"/>
</g>
<defs>
<clipPath id="clip0">
<path d="M0 2.5C0 1.39543 0.895431 0.5 2 0.5H18C19.1046 0.5 20 1.39543 20 2.5V13.5C20 14.6046 19.1046 15.5 18 15.5H2C0.895431 15.5 0 14.6046 0 13.5V2.5Z" fill="white"/>
</clipPath>
</defs>
</svg>
